X:1
T:Title
%%score { ( 1 3 ) | 2 }
L:1/8
M:4/4
K:F
V:1 treble nm="Grand Piano"
V:3 treble 
V:2 bass 
V:1
 z4 z2[Q:1/4=100] C>F | A2 A2 B2 A2 | [FA]2 [EG]4 C>E | [EG]2 [EG]2 [EG]2 [EA]2 |[M:3/4] F6 | %5
[M:1/4] C>F |[M:4/4] A2 A2 B2 A2 | [FA]2 [EG]4 C>E | [EG]2 [EG]2 [EG]2 [EA]2 |[M:3/4] F6 | %10
[M:1/4] F>A |[M:4/4] c2 c2 d2 d2 | c6 F>A | c2 c2 d2 d2 |[M:3/4] c6 |[M:1/4] [Ec]>[EB] | %16
[M:4/4] [FA]2 [FA]2 [EG]2 [EG]2 |[M:5/4] z2 d6 [CFc]>[DGB] |[M:4/4] [FA]2 [FA]2 [FA]2 [EG]2 | %19
[M:3/4] F6 |[M:1/4] F>A |[M:4/4] c2 f2 e2 d2 | c6 F>G | A2 A2 [FA]2 [F=B]2 |[M:3/4] [Ec]6 | %25
[M:1/4] [Ec]>[EB] |[M:4/4] [FA]2 [FA]2 [EG]2 [EG]2 |[M:5/4] z2 d6 [CFc]>[DGB] | %28
[M:4/4] [CFA]2 [CFA]2 [CFA]2 [B,EG]2 |[M:7/4] [A,F]6 z2 z2 z4 |] %30
V:2
 z4 z2 [F,A,]>[F,A,C] | [F,CF]2 [F,CF]2 [F,DF]2 [F,CF]2 | [C,C]2 [C,C]4 C,>[C,C] | %3
 [C,C]2 [C,C]2 [C,C]2 [C,C]2 |[M:3/4] [F,A,]6 |[M:1/4] [F,A,]>[F,A,C] | %6
[M:4/4] [F,CF]2 [F,CF]2 [F,DF]2 [F,CF]2 | [C,C]2 [C,C]4 C,>[C,C] | [C,C]2 [C,C]2 [C,C]2 [C,C]2 | %9
[M:3/4] [F,A,]6 |[M:1/4] [F,A,]>[F,A,F] |[M:4/4] [F,A,F]2 [F,A,F]2 [F,B,F]2 [F,B,F]2 | %12
 [F,A,F]6 [F,A,]>[F,A,F] | [F,A,F]2 [F,A,F]2 [F,B,F]2 [F,B,F]2 |[M:3/4] [F,A,F]6 | %15
[M:1/4] [C,G,]>[C,C] |[M:4/4] [F,C]2 [F,C]2 [C,C]2 [C,B,]2 |[M:5/4] [D,A,]2 [B,,B,]6 A,,>B,, | %18
[M:4/4] [C,C]2 [C,C]2 [C,C]2 [C,B,]2 |[M:3/4] [F,A,]6 |[M:1/4] [F,A,]>[F,A,F] | %21
[M:4/4] [F,A,F]2 [F,DF]2 [F,CF]2 [F,B,F]2 | [F,A,F]6 [F,A,]>[F,B,F] | %23
 [F,CF]2 [F,CF]2 [D,D]2 [D,G,]2 |[M:3/4] [C,G,]6 |[M:1/4] [C,G,]>[C,C] | %26
[M:4/4] [F,C]2 [F,C]2 [C,C]2 [C,B,]2 |[M:5/4] [D,A,]2 [B,,B,]6 A,,>B,, |[M:4/4] C,2 C,2 C,2 C,2 | %29
[M:7/4] F,6 z2 z2 z4 |] %30
V:3
 x8 | x8 | x8 | x8 |[M:3/4] x6 |[M:1/4] x2 |[M:4/4] x8 | x8 | x8 |[M:3/4] x6 |[M:1/4] x2 | %11
[M:4/4] x8 | x8 | x8 |[M:3/4] x6 |[M:1/4] x2 |[M:4/4] x8 |[M:5/4] F2- F6 z2 |[M:4/4] x8 | %19
[M:3/4] x6 |[M:1/4] x2 |[M:4/4] x8 | x8 | x8 |[M:3/4] x6 |[M:1/4] x2 |[M:4/4] x8 | %27
[M:5/4] F2- F6 z2 |[M:4/4] x8 |[M:7/4] x14 |] %30

